X:1
T: Hey for the Hieland Body
C:
R:Reel
Q: 232
K:D
M:4/4
L:1/8
|:a2 ag fd df|a2 ag fd df|a2 ag fd df|e2 ed cA A2|
a2 ag fd df|ab ag fd df|a2 ag fd df|e2 ed cA A2|
f2 fe dB Bd|f2 fe dB Bd|f2 fe dB Bd|e2 ed cA A2|
f2 fe dB Bd|fb fe dB Bd|f2 fe dB Bd|e2 ed cA A2:|
